!!!COM: Music21
!!!OTL: mazurka_Boules-Et-Guirlandes
!!!OMV: mazurka_Boules-Et-Guirlandes
**kern
*clefG2
*k[f#]
*G:
*M3/4
=1
8.gL
16ddJk
8.ddL
16bJk
4dd
=
8.aL
16bJk
8.ccL
16ddJk
8.ccL
16bJk
=
8.gL
16ddJk
8.ddL
16bJk
4dd
=
8.aL
16bJk
8.ccL
16ddJk
8.ccL
16bJk
=||
*M3/4
8.gL
16ddJk
8.ddL
16bJk
4dd
!!linebreak:original
=
8.aL
16bJk
8.ccL
16ddJk
8.ccL
16bJk
=
8.gL
16ddJk
8.ddL
16bJk
4dd
=
8.aL
16bJk
8.ccL
16ddJk
8.ccL
16bJk
=||
4g
8.f#L
16gJk
8.bL
16ccJk
=
8.bL
16gJk
8.f#L
16gJk
8.aL
16f#Jk
=
4g
8.f#L
16gJk
8.aL
16gJk
!!linebreak:original
=
8.ccL
16ddJk
8.ccL
16bJk
8.gL
16f#Jk
=||
*M3/4
8.gL
16ddJk
8.ddL
16bJk
4dd
=
8.aL
16bJk
8.ccL
16ddJk
8.ccL
16bJk
=
8.gL
16ddJk
8.ddL
16bJk
4dd
=
8.aL
16bJk
8.ccL
16ddJk
8.ccL
16bJk
!!linebreak:original
=||
*M3/4
8.gL
16ddJk
8.ddL
16bJk
4dd
=
8.aL
16bJk
8.ccL
16ddJk
8.ccL
16bJk
=
8.gL
16ddJk
8.ddL
16bJk
4dd
=
8.aL
16bJk
8.ccL
16ddJk
8.ccL
16bJk
=||
4g
8.f#L
16gJk
8.bL
16ccJk
=
8.bL
16gJk
8.f#L
16gJk
8.aL
16f#Jk
!!linebreak:original
=
4g
8.f#L
16gJk
8.aL
16gJk
=
8.ccL
16ddJk
8.ccL
16bJk
4g
=||
*-
